apps/client/public/favicon.svg

<?xml version="1.0" encoding="utf-8"?><!-- Uploaded to: SVG Repo, www.svgrepo.com, Generator: SVG Repo Mixer Tools -->
<svg width="800px" height="800px" viewBox="0 0 24 24" fill="none" xmlns="http://www.w3.org/2000/svg">
<path d="M18.9999 16L19.8692 4.26538C19.9448 3.24523 19.275 2.31876 18.2826 2.07066C17.0656 1.76642 15.8548 2.58884 15.689 3.83225L15 9" stroke="#000000" stroke-width="2" stroke-linecap="round" stroke-linejoin="round"/>
<path d="M8 11L7.28683 6.72097C7.12131 5.72788 6.26208 5 5.25529 5C4.0442 5 3.09454 6.03991 3.20418 7.24603L4 16" stroke="#000000" stroke-width="2" stroke-linecap="round" stroke-linejoin="round"/>
<path d="M12 13V11.5C12 10.3954 11.1046 9.5 10 9.5C8.89543 9.5 8 10.3954 8 11.5V15" stroke="#000000" stroke-width="2" stroke-linecap="round" stroke-linejoin="round"/>
<path d="M16 13V11C16 9.89543 15.1046 9 14 9C12.8954 9 12 9.89543 12 11V13" stroke="#000000" stroke-width="2" stroke-linecap="round" stroke-linejoin="round"/>
<path d="M19 16C18.4643 20 15.6421 22 11.5 22C7.35786 22 4 20 4 16" stroke="#000000" stroke-width="2"/>
<path d="M13.6923 17H11C9.89543 17 9 16.1046 9 15C9 13.8954 9.89543 13 11 13L15 13C17.2091 13 19.5 15 18.5 18" stroke="#000000" stroke-width="2" stroke-linecap="round" stroke-linejoin="round"/>
</svg>

<svg xmlns="http://www.w3.org/2000/svg" width="24" height="24" viewBox="0 0 24 24"><g fill="none" stroke="#ffffff" stroke-width="2"><path stroke-linecap="round" stroke-linejoin="round" d="m19 16l.87-11.735a2.102 2.102 0 0 0-4.181-.433L15 9m-7 2l-.713-4.279a2.06 2.06 0 0 0-4.083.525L4 16m8-3v-1.5a2 2 0 1 0-4 0V15"/><path stroke-linecap="round" stroke-linejoin="round" d="M16 13v-2a2 2 0 1 0-4 0v2"/><path d="M19 16c-.536 4-3.358 6-7.5 6C7.358 22 4 20 4 16"/><path stroke-linecap="round" stroke-linejoin="round" d="M13.692 17H11a2 2 0 1 1 0-4h4c2.21 0 4.5 2 3.5 5"/></g></svg>
